X:1
T:Title
%%score ( 1 2 ) ( 3 4 )
L:1/8
Q:1/4=100
M:4/4
K:G
V:1 treble nm="Strings 1, Treble"
V:2 treble 
V:3 bass nm="Strings 1, Bass"
V:4 bass 
V:1
 z4 z2 [B,D][B,G] | [DB][DB] [DB]4 [CA][DB] | [B,G][B,G] [B,G]4 [A,F][B,G] | %3
w: 1.~'Tis~ the~|sweet est~ name~ that~ the~|an gels~ know,~ 'Tis~ the~|
 [CA][CA] [CA]4 [DB][Ec] | [DB][DB] [DB]4 [B,D][B,G] | [DB][DB] [DB]4 [CA][DB] | %6
w: sweet est~ name~ here~ on~|earth~ be low,~ 'Tis~ the~|sweet est~ name,~ and~ I~|
 [B,G][B,G] [B,G]4 [B,G][DB] | [Fd]>[Gd] [Ad][Gd] [Fd][Ec][DB][CA] | G2 z2 z4 | %9
w: love~ it~ so;~ Tell~ it~|out~ to~ all~ the~ world~ that~ name~ is~|Je|
 [Bd]2 [Bd]4 [ce][Bd] | [GB][GB][GB][GB] [GB]2 [FA][GB] | .A2 c4 z2 | %12
w: |||
 [GB][DB][EB][FB] [GB]2 [B,D][B,G] | [DB][Ec][DB][^C_B] [D=B]2 [B,G][DB] | %14
w: ||
 [Bd]>[ce] [Bd][_B^c] [=Bd]2 [Ge][Q:1/4=100][Ge][Q:1/4=12] | [Gd][GB][DG][CE] [B,D] [DB]3 | %16
w: ||
 G6 z2 |] %17
w: |
V:2
 x8 | x8 | x8 | x8 | x8 | x8 | x8 | x8 | B,C [B,G]4 [GB][Ac] | x8 | x8 | c-[Dc]FG AA[Fd][Fc] | x8 | %13
 x8 | x8 | x8 | B,DCC B,2 z2 |] %17
V:3
 z8 | [G,,G,][G,,G,][B,,G,][D,G,] G,2 z2 | [G,,G,][G,,G,][B,,G,][D,G,] G,2 z2 | %3
 [D,F,][D,F,][D,F,][D,F,] [D,F,]2 z2 | [G,,G,][G,,G,][B,,G,][D,G,] G,2 z2 | %5
 [G,,G,][G,,D,][G,,E,][G,,F,] [G,,G,]2 z2 | [G,,G,][G,,D,][G,,E,][G,,F,] [G,,G,]2 G,G, | %7
 A,>B, CB, A,[D,F,][D,G,]D, | .D,2 z2 z4 | [G,D][G,D][B,D]D [G,D][G,D][G,D][G,D] | %10
 [G,D][G,D][B,D]D [G,D]2 z2 | [D,F,][D,F,][D,A,][D,B,] [D,D][D,D][D,A,][D,A,] | %12
 [G,,G,][G,,G,][G,,G,][G,,G,] [G,,G,]2 [G,,G,][G,,D,] | %13
 [G,,G,][G,,G,][G,,G,][G,,G,] [G,,G,]2 G,G, | [G,D]>[G,D] [G,D][G,D] [G,D]2 [C,C][C,C] | %15
 [D,B,][D,D][D,B,][D,G,] [D,G,] [D,F,]3 | G,F,E,^D, =D,2 z2 |] %17
V:4
 x8 | x8 | x8 | x8 | x8 | x8 | x8 | D,6 z2 | G,,-[G,,E,] [G,,D,]4 z2 | x8 | x8 | x8 | x8 | x8 | %14
 x8 | x8 | G,,6 z2 |] %17

